X:1
T:A minor Oliver Brownson, 1797
T:Isaac Watts, 1719 (Psalm 101, Part 2)     86. 86. (C. M.) 
T:Bancroft
T:Transcribed from  A New Collection of Sacred Harmony, 1797.
%%score [ 1 2 3 ]
L:1/8
Q:1/4=120
M:4/4
K:C
V:1 treble nm="Treble" snm="Tr."
V:2 treble-8 nm="Tenor" snm="T."
V:3 bass nm="Bass" snm="B."
V:1
"^1. Of  justice  and  of  grace  I   sing,   And pay my God my  vows; Thy grace and justice, heav'nly King, Teach  me  to  rule  my   house." E4 E2 c2 | %1
 B2 A2 B2 cB | A2 AB c2 BA | B2 G2 G4- | G2 z2 A4 | G2 A2 E2 D2 | E2 E2 E2 c2 | d2 e2 f2 ed | e8 | %9
 z4"^1. Now to  my  tent,  O God, repair, And make thy servant wise;          I'll  suf – fer nothing  near me there  That  shall offend thine eyes." ^G4 | %10
 A2 B2 c2 BA | A2 A2 B4 | A4 G2 G2 | BA GF E4- | E2 z2 G4 | AB cB A2 e2 | d2 B2 G2 cB | %17
 A2 A2 G2 B2 | A8 |] %19
V:2
"^2. The man that doth his neighbor wrong By falsehood or by force, The scornful eye, the sland'rous tongue  I'll thrust them from my doors." A4 G2 E2 | %1
 E2 F2 ED C2 | D2 D2 E2 G2 | G2 B2 (c4 | B2) z2 d4 | c2 A2 A2 GA | B2 G2 G2 G2 | A2 A2 AG F2 | E8 | %9
 z4"^2. I'll seek the faithful and the just,  And will their  help enjoy;         These  are   the  friends  that  I shall trust, The servants  I'll  employ." c4 | %10
 e2 e2 e2 dc | d2 d2 d4 | c4 e2 e2 | d2 B2 (A4 | G2) z2 E4 | F2 ED D2 CD | E2 G2 G2 G2 | %17
 F2 ED E2 G2 | A8 |] %19
V:3
"^3. The wretch that deals in sly deceit  I'll     not  en – dure   a      night:       The    liar's tongue I  ever hate,  And  banish  from  my  sight." A,,4 C,2 C,D, | %1
 E,2 A,2 G,F, E,2 | D,2 D,2 C,2 C,2 | E,F, G,F, E,4- | E,2 z2 D,4 | E,2 A,2 A,2 B,A, | %6
 G,2 E,2 C,2 C,2 | F,2 E,D, D,2 D,2 | E,8 | %9
 z4"^3. I'll purge my fam ily    a round,  And make the wicked   flee;              So shall  my house  be   ev – er found   A    dwelling  fit  for   thee." C,4 | %10
 A,,2 E,2 E,2 F,E, | D,2 D,2 D,4 | A,4 E,2 C,2 | D,2 E,2 C,4- | C,2 z2 E,4 | A,2 A,2 A,2 G,A, | %16
 B,2 G,2 E,2 C,2 | D,2 G,F, E,2 E,2 | A,,8 |] %19

